svgs/sharp-light/sd-card.svg

<svg xmlns="http://www.w3.org/2000/svg" viewBox="0 0 384 512"><!--! Font Awesome Pro 6.6.0 by @fontawesome - https://fontawesome.com License - https://fontawesome.com/license (Commercial License) Copyright 2024 Fonticons, Inc. --><path d="M352 32l0 448L32 480l0-338.7L141.3 32 352 32zM128 0L0 128 0 480l0 32 32 0 320 0 32 0 0-32 0-448 0-32L352 0 128 0zm64 80l0-16-32 0 0 16 0 64 0 16 32 0 0-16 0-64zm64 0l0-16-32 0 0 16 0 64 0 16 32 0 0-16 0-64zm64 0l0-16-32 0 0 16 0 64 0 16 32 0 0-16 0-64z"/></svg>

<svg xmlns="http://www.w3.org/2000/svg" viewBox="0 0 384 512"><!--! Font Awesome Pro 6.5.2 by @fontawesome - https://fontawesome.com License - https://fontawesome.com/license (Commercial License) Copyright 2024 Fonticons, Inc. --><path d="M352 32V480H32V141.3L141.3 32H352zM128 0L0 128V480v32H32 352h32V480 32 0H352 128zm64 80V64H160V80v64 16h32V144 80zm64 0V64H224V80v64 16h32V144 80zm64 0V64H288V80v64 16h32V144 80z"/></svg>
